sites/WD/images/project.svg

<svg width="50" height="50" viewBox="0 0 50 50" fill="none" xmlns="http://www.w3.org/2000/svg">
<path d="M49.1665 0H11.6666C11.2064 0 10.8333 0.373124 10.8333 0.833332V13.3333H12.5V1.66666H48.3332V47.4999C48.3412 47.9381 48.0031 48.3052 47.5657 48.3332C47.494 48.3332 47.4224 48.3274 47.3507 48.3257C47.2032 48.3216 47.0557 48.3182 46.9107 48.3032C46.8982 48.3032 46.8866 48.3032 46.8741 48.2982C44.1524 48.0007 42.0025 45.8529 41.7024 43.1316C41.7024 43.1199 41.6982 43.1074 41.6966 43.0957C41.6764 42.8977 41.6664 42.6989 41.6666 42.4999V40.8333C41.6666 40.373 41.2934 39.9999 40.8332 39.9999H12.5V24.9999H10.8333V39.9999H4.16664C3.70644 39.9999 3.33331 40.373 3.33331 40.8333V42.4999C3.3379 46.6401 6.6931 49.9953 10.8333 49.9999H47.5832C48.9355 49.9645 50.0103 48.8526 49.9999 47.4999V0.833332C49.9999 0.373124 49.6268 0 49.1665 0ZM10.8333 48.3332C7.6132 48.3296 5.00362 45.72 4.99998 42.4999V41.6666H39.9999V42.4999C40.001 42.7747 40.0169 43.0493 40.0474 43.3224C40.0549 43.3949 40.0691 43.4649 40.0791 43.5366C40.1066 43.7382 40.1399 43.9391 40.1841 44.1366C40.1991 44.2057 40.2182 44.2741 40.2357 44.3432C40.2866 44.5441 40.3441 44.7416 40.4107 44.9366C40.4299 44.9924 40.4499 45.0474 40.4707 45.1032C40.5466 45.3099 40.6324 45.5116 40.7266 45.7107C40.7466 45.7516 40.7649 45.7941 40.7849 45.8316C40.8894 46.0427 41.0041 46.2479 41.1291 46.4474C41.1457 46.4741 41.1607 46.5016 41.1774 46.5307C41.3132 46.7436 41.4599 46.9494 41.6166 47.1474L41.6432 47.1832C41.8251 47.4117 42.0199 47.6295 42.2266 47.8357C42.406 48.0135 42.5921 48.1802 42.7849 48.3357L10.8333 48.3332Z" fill="white"/>
<path d="M27.4999 23.3333C27.721 23.3333 27.9329 23.2454 28.0891 23.0891L31.4224 19.7558C31.7477 19.4304 31.7477 18.9029 31.4224 18.5775L28.0891 15.2441C27.9329 15.0879 27.721 15 27.4999 15H4.16666C1.86552 15 0 16.8655 0 19.1666C0 21.4678 1.86552 23.3333 4.16666 23.3333H27.4999ZM27.2849 16.7966L29.6549 19.1666L27.2849 21.5366L26.6924 19.1666L27.2849 16.7966ZM6.66665 16.6666H25.5999L25.1833 18.3333H8.33332V20H25.1833L25.5999 21.6666H6.66665V16.6666ZM1.66666 19.1666C1.66666 17.7859 2.78593 16.6666 4.16666 16.6666H4.99999V21.6666H4.16666C2.78593 21.6666 1.66666 20.5474 1.66666 19.1666Z" fill="white"/>
<path d="M19.1667 35.8333H44.1666C44.6268 35.8333 44.9999 35.4601 44.9999 34.9999V9.99998C44.9998 9.53977 44.6267 9.16675 44.1664 9.16685C43.9455 9.16685 43.7337 9.25467 43.5774 9.41081L18.5775 34.4108C18.2521 34.7363 18.2522 35.2639 18.5777 35.5893C18.734 35.7454 18.9457 35.8333 19.1667 35.8333ZM43.3333 12.0116V14.1666H41.6666V15.8333H43.3333V17.5H41.6666V19.1666H43.3333V20.8333H41.6666V22.5H43.3333V24.1666H41.6666V25.8333H43.3333V27.4999H41.6666V29.1666H43.3333V30.8333H41.6666V32.4999H43.3333V34.1666H41.6666V32.4999H40V34.1666H38.3333V32.4999H36.6666V34.1666H35V32.4999H33.3333V34.1666H31.6666V32.4999H30V34.1666H28.3333V32.4999H26.6666V34.1666H25V32.4999H23.3333V34.1666H21.1783L43.3333 12.0116Z" fill="white"/>
<path d="M31.2375 30.8333H39.1666C39.6268 30.8333 40 30.4602 40 29.9999V22.0708C39.9999 21.6106 39.6267 21.2376 39.1664 21.2377C38.9455 21.2377 38.7337 21.3255 38.5775 21.4816L30.6483 29.4108C30.3229 29.7363 30.323 30.2639 30.6485 30.5893C30.8048 30.7455 31.0165 30.8333 31.2375 30.8333ZM38.3333 24.0833V29.1666H33.25L38.3333 24.0833Z" fill="white"/>
<path d="M38.3333 4.99998H21.6666V6.66665H38.3333V4.99998Z" fill="white"/>
<path d="M40.8332 8.33331H19.1666V9.99998H40.8332V8.33331Z" fill="white"/>
<path d="M19.1666 25.8333H14.1666V27.4999H19.1666V25.8333Z" fill="white"/>
<path d="M17.5 29.1666H14.1666V30.8333H17.5V29.1666Z" fill="white"/>
</svg>

<svg width="50" height="50" fill="none" xmlns="http://www.w3.org/2000/svg"><path d="M49.166 0h-37.5a.833.833 0 0 0-.833.833v12.5H12.5V1.667h35.833V47.5a.82.82 0 0 1-.767.833c-.072 0-.144-.006-.215-.007-.148-.004-.295-.008-.44-.023-.013 0-.024 0-.037-.005a5.842 5.842 0 0 1-5.172-5.166c0-.012-.004-.025-.005-.036a5.812 5.812 0 0 1-.03-.596v-1.667a.833.833 0 0 0-.834-.833H12.5V25h-1.667v15H4.167a.833.833 0 0 0-.834.833V42.5a7.508 7.508 0 0 0 7.5 7.5h36.75A2.482 2.482 0 0 0 50 47.5V.833A.833.833 0 0 0 49.166 0ZM10.834 48.333A5.84 5.84 0 0 1 5 42.5v-.833h35v.833c.001.275.017.55.047.822.008.073.022.143.032.215.028.201.06.402.105.6.015.069.034.137.052.206a7.63 7.63 0 0 0 .235.76c.076.207.161.409.256.608.02.04.038.083.058.12.104.212.22.417.344.616.017.027.032.055.048.084.136.213.283.418.44.616l.026.036a7.332 7.332 0 0 0 1.142 1.153l-31.952-.003Z" fill="#fff"/><path d="M27.5 23.333a.833.833 0 0 0 .59-.244l3.332-3.333a.833.833 0 0 0 0-1.178l-3.333-3.334A.833.833 0 0 0 27.5 15H4.168a4.167 4.167 0 0 0 0 8.333H27.5Zm-.215-6.536 2.37 2.37-2.37 2.37-.593-2.37.593-2.37Zm-20.618-.13H25.6l-.417 1.666H8.333V20h16.85l.417 1.667H6.667v-5Zm-5 2.5a2.5 2.5 0 0 1 2.5-2.5H5v5h-.833a2.5 2.5 0 0 1-2.5-2.5ZM19.167 35.833h25c.46 0 .833-.373.833-.833V10a.833.833 0 0 0-1.423-.59l-25 25a.833.833 0 0 0 .59 1.423Zm24.166-23.821v2.155h-1.666v1.666h1.666V17.5h-1.666v1.667h1.666v1.666h-1.666V22.5h1.666v1.667h-1.666v1.666h1.666V27.5h-1.666v1.667h1.666v1.666h-1.666V32.5h1.666v1.667h-1.666V32.5H40v1.667h-1.667V32.5h-1.666v1.667H35V32.5h-1.667v1.667h-1.666V32.5H30v1.667h-1.667V32.5h-1.666v1.667H25V32.5h-1.667v1.667h-2.155l22.155-22.155Z" fill="#fff"/><path d="M31.238 30.833h7.929c.46 0 .833-.373.833-.833v-7.93a.833.833 0 0 0-1.422-.588l-7.93 7.929a.833.833 0 0 0 .59 1.422Zm7.095-6.75v5.084H33.25l5.083-5.084ZM38.333 5H21.667v1.667h16.666V5ZM40.833 8.333H19.167V10h21.666V8.333ZM19.167 25.833h-5V27.5h5v-1.667ZM17.5 29.167h-3.333v1.666H17.5v-1.666Z" fill="#fff"/></svg>
